X:107
T:Terry Hi Ho the Grinder
R:slip jig
S:Michael Clarkson on irishflute.podbean.com
Z:id:hn-slipjig-107
M:9/8
L:1/8
K:Ador
AGE A2B G2B | A2E ABd e2f | gdB BAB GBA |1 GED GAB dcB :|2 GED GAB d3 ||
|: efg edB BAB | ~g3 edB d3 | efg edB BAB |1 GED GAB d3 :|2 GED GAB dcB ||

